X:1
T:Title
%%score { ( 1 3 ) | ( 2 4 ) }
L:1/8
M:6/8
K:C
V:1 treble nm="Grand Piano"
V:3 treble 
V:2 bass 
V:4 bass 
V:1
 z3 z2[Q:1/4=81] [EG] | z3 .e3 | [Fc][B,GB][CFA] [CEG]2 [CEG] | [EG]FE [DF]2 [EG] | %4
 [CE]3- [CE]2 [EG] | z3 .e3 | cBA [EG]2 [EG] | [D^F]2 [Fc] [Fc][B,GB][FA] | %8
[M:5/8] [B,G]-[B,G]- [B,G]3 |[M:1/8] G |[M:3/4] dd dd cB | [Ec][Ec] [Ec] [EG]2 [EG] | %12
 [CEG][C_E^F] [C=EG] [B,D=F]2 [DF] | [DF][^CE] [DF] [=CE]2 [EG] | [EG][_E^F] [=EG][Ge] [Gd][Gc] | %15
 [Fc][B,GB] [CFA] [CEG]2 [CEG] | [CFA][CFA] [D^FA][D=FB] [DFA][FB] |[M:5/8] [Ec]-[Ec]- [Ec]3 |] %18
V:2
 z3 z2 [C,C] | [C,C][C,C][C,C] [C,C][D,B,][E,C] | [F,A,]F,F, C,2 C, | .G,3 z3 | %4
 [C,G,]3- [C,G,]2 [C,C] | [C,C]2 [C,C] [C,C][D,B,][E,C] | [A,F][B,G][K:bass][F,CF] [C,C]2 [C,C] | %7
 [D,A,]2 [D,A,] .[D,A,]2 [D,C] |[M:5/8] [G,,G,]-[G,,G,]- [G,,G,]3 |[M:1/8] [G,B,] | %10
[M:3/4][K:treble] [G,B,F][G,B,F] [G,B,F][G,B,F] [G,E][K:bass][G,D] | %11
 [C,G,][C,G,] [C,G,] [C,C]2 [C,C] | G,G, G, G,,2 [G,,G,] | [G,,G,][G,,G,] [G,,G,] [C,G,]2 [C,C] | %14
 [C,C][C,C] [C,C][C,C] [D,B,][E,C] | [F,A,]F, F, C,2 C, | F,F, B,,G, G,[G,,G,] | %17
[M:5/8] [C,G,]-[C,G,]- [C,G,]3 |] %18
V:3
 x6 | [EG][_E^F][=EG] G-[Gd][Gc] | x6 | x6 | x6 | [EG][_E^F][=EG] G-[Gd][Gc] | x6 | x6 | %8
[M:5/8] x5 |[M:1/8] x |[M:3/4] x6 | x6 | x6 | x6 | x6 | x6 | x6 |[M:5/8] x5 |] %18
V:4
 x6 | x6 | x6 | z D[G,C] [G,,G,]2 [G,,G,] | x6 | x6 | .F,3[K:bass] z3 | x6 |[M:5/8] x5 |[M:1/8] x | %10
[M:3/4][K:treble] x5[K:bass] x | x6 | x6 | x6 | x6 | x6 | x6 |[M:5/8] x5 |] %18

